packages/ui-icons/svg/Line/flag.svg

<svg viewBox="0 0 1920 1920" version="1.1" xmlns="http://www.w3.org/2000/svg">
    <path d="M1848.71529,357.684706 C1834.82353,342.098824 1813.36471,335.548235 1792.92235,340.517647 C1373.12,445.552941 1162.59765,321.430588 959.077647,201.487059 C756.461176,82.3341176 547.52,-40.6588235 168.941176,103.905882 L168.941176,0 L56,0 L56,1920 L168.941176,1920 L168.941176,227.011765 C521.882353,78.0423529 691.068235,174.72 901.703529,298.842353 C1097.54353,414.155294 1317.55294,543.924706 1713.52471,472.997647 C1542.64471,848.527059 1327.60471,855.868235 1060.61176,865.129412 C826.823529,873.148235 561.863529,882.409412 298.371765,1145.90118 L378.221176,1225.86353 C610.315294,993.769412 841.28,985.863529 1064.56471,977.957647 C1355.38824,967.905882 1656.03765,957.515294 1859.44471,415.171765 C1866.78588,395.52 1862.72,373.383529 1848.71529,357.684706" stroke="none" stroke-width="1" fill-rule="evenodd"/>
</svg>

<svg viewBox="0 0 1920 1920" xmlns="http://www.w3.org/2000/svg">
    <path d="M1848.715 357.685c-13.891-15.586-35.35-22.137-55.793-17.167-419.802 105.035-630.324-19.087-833.844-139.03C756.46 82.333 547.52-40.66 168.94 103.905V0H56v1920h112.941V227.012c352.941-148.97 522.127-52.292 732.763 71.83 195.84 115.313 415.849 245.083 811.82 174.156-170.88 375.53-385.92 382.87-652.912 392.131-233.788 8.02-498.748 17.28-762.24 280.772l79.85 79.963c232.093-232.095 463.058-240 686.343-247.906 290.823-10.052 591.473-20.443 794.88-562.786 7.34-19.652 3.275-41.788-10.73-57.487" fill-rule="evenodd"/>
</svg>
